icons/Gatsby.svg

<svg width="256" height="256" viewBox="0 0 256 256" fill="none" xmlns="http://www.w3.org/2000/svg">
<rect width="256" height="256" rx="60" fill="#663399"/>
<path d="M228 128H164.364V146.182H208C201.636 173.455 181.636 196.182 155.273 205.273L50.7273 100.727C61.6364 68.9091 92.5455 46.1818 128 46.1818C155.273 46.1818 179.818 59.8182 195.273 80.7273L208.909 68.9091C190.727 44.3636 161.636 28 128 28C80.7273 28 40.7273 61.6364 30.7273 106.182L150.727 226.182C194.364 215.273 228 175.273 228 128ZM28 128.909C28 154.364 38 178.909 57.0909 198C76.1818 217.091 101.636 227.091 126.182 227.091L28 128.909Z" fill="white"/>
</svg>

<svg xmlns="http://www.w3.org/2000/svg" width="256" height="256" fill="none" viewBox="0 0 256 256"><rect width="256" height="256" fill="#639" rx="60"/><path fill="#fff" d="M228 128h-63.64v18.18H208c-6.36 27.28-26.36 50-52.73 59.1L50.73 100.72C61.63 68.9 92.55 46.18 128 46.18c27.27 0 51.82 13.64 67.27 34.55l13.64-11.82C190.73 44.36 161.64 28 128 28c-47.27 0-87.27 33.64-97.27 78.18l120 120C194.36 215.28 228 175.28 228 128m-200 .9c0 25.46 10 50 29.1 69.1 19.08 19.1 44.54 29.1 69.08 29.1z"/></svg>
